X: 305
T:Fisher's Hornpipe. JaW.304
M:C
Q:160
C:"A Good Tune"
S:James Winder Ms, Lancashire, 1835-41
R:Hornpipe
O:England
A:Wyresdale,Lancashire
N:Not The Usual Fisher's HP.
H:1/8
Z:vmp.Chris Partington, Aug 2004
K:A
aecA B2df|ecBA GBED|CEAc EAce|aedc c2B2|!
aecA B2df|ecBA GBED|CEAc dBAG|A2A2A4:|!
|:GBEd cAdc|B2Bc B2Bc|defg aecA|E2EE E4|!
cecA ecBA|fdbf agfe|dBGE FAGB|A2A2A4:|]
